X:1
T:To Glory or to Gloom?
T:To Glory or to Gloom?
T:Ella Parks Martin
T:Ella Parks Martin, 1903
T:Public Domain Courtesy of the Cyber Hymnal™
T:Public Domain Courtesy of the Cyber Hymnal™
C:Ella Parks Martin
Z:Public Domain
Z:Courtesy of the Cyber Hymnal™
%%score ( 1 2 ) ( 3 4 )
L:1/8
Q:1/4=92
M:4/4
K:Ab
V:1 treble 
V:2 treble 
V:3 bass 
V:4 bass 
V:1
 [CE][CE] | [DE]>[DE] [DE][DE] [DG][DG][DF][DG] | [DB] [CA]4 z [CA][EG] | %3
w: 1.~There’s a|gen- tle voice that’s plead- ing with you,|bro- ther, You have|
w: 2.~’Tis a|quest- ion you must an- swer, O my|bro- ther, For the|
w: 3.~You are|choos- ing in this sol- emn hour, my|bro- ther, And your|
 [DF]>[DF] [DF][DF] [=DA][DA] [DB]>[Dc] | [EB]6 [DE][B,D] | [A,C]>[CE] [EA][EB] [Ec]2 [Ec][Ec] | %6
w: heard it at the morn- ing, night and|noon; And it|speaks to you to- day, as in|
w: judg- ment day is com- ing, sure and|soon; You are|stand- ing here to- day, at the|
w: choice may fix your soul’s e- ter- nal|doom; Je- sus|waits for you to- day, point- ing|
 [=Ec]>[EG] [Ec][EB] [FA]2 [FA][FA] | [EA]>E [EA][Ec] [Ee]<[Ec] [DB]>[Ec] | [CA]6 z2 || %9
w: paths of sin you stray; Are you|go- ing on to glo- ry or to|gloom?|
w: part- ing of the way; Are you|go- ing on to glo- ry or to|gloom?|
w: t’ward the nar- row way; Are you|go- ing on to glo- ry or to|gloom?|
"^Refrain" [Ec]>[Ec] [Ec][DB] [DB][CA][A,C][B,D] | ([=B,F]4 [CE]2) z2 | %11
w: ||
w: Go- ing on to glo- ry or to|gloom? *|
w: ||
 [DE]>[DE] [DG][DG] [=DB][Dc][DB][B,D] | !fermata!E6 !fermata![DE][B,D] | %13
w: ||
w: On to end- less joy or end- less|doom? Bro- ther,|
w: ||
 [A,C]>[CE] [EA][EB] [Ec]2 [Ec][=EB] | [FA]>[FB] [FA][DF] [FA]2 [FA][FA] | %15
w: ||
w: hear the voice of God As He|speaks to you in love, Are you|
w: ||
 [EA]>E [EA][Ec] [Ee]<[Ec] [DB]>[Ec] | !fermata!A6 |] %17
w: ||
w: go- ing on to glo- ry or to|gloom?|
w: ||
V:2
 x2 | x8 | x8 | x8 | x8 | x8 | x8 | x3/2 E/ x6 | x8 || x8 | x8 | x8 | (B,2 CC D2) x2 | x8 | x8 | %15
 x3/2 E/ x6 | (C2 =B,B, C2) |] %17
V:3
 [A,,A,][A,,A,] | [B,,G,]>[B,,G,] [B,,G,][B,,G,] [E,B,][E,B,][E,B,][E,B,] | %2
w: ~ ~|~ ~ ~ ~ ~ ~ ~ ~|
 [A,,A,] [A,,A,]4 z [A,,A,][C,A,] | [D,A,]>[D,A,] [D,A,][D,A,] [B,,B,][B,,B,] [B,,F,]>[B,,B,] | %4
w: ~ ~ ~ ~|~ ~ ~ ~ ~ ~ ~ ~|
 [E,G,]6 [E,G,][E,G,] | [A,,A,]>[A,,A,] [C,A,][E,G,] A,2 A,A, | %6
w: ~ ~ ~|~ ~ ~ ~ ~ ~ ~|
 [C,G,]>[C,B,] [C,G,][C,G,] (F,A,)[_D,D][=D,=B,] | %7
w: ~ ~ ~ ~ ~ * ~ ~|
 [E,C]>[C,A,] [A,,C][A,,E] [E,C]<[E,A,] [E,G,]>[E,G,] | [A,,A,]6 z2 || %9
w: ~ ~ ~ ~ ~ ~ ~ ~|~|
 [A,,A,]>[A,,A,] [A,,A,][A,,A,] [A,,E,][A,,E,][A,,E,][A,,E,] | [A,,A,]6 z2 | %11
w: ~ ~ ~ ~ ~ ~ ~ ~|~|
 [E,B,]>[E,B,] [E,B,][E,B,] [B,,B,][B,,A,][B,,F,][B,,F,] | %12
w: ~ ~ ~ ~ ~ ~ ~ ~|
 !fermata!G,2 A,A, !fermata!B,2 [E,B,][E,G,] | [A,,A,]>[A,,A,] [C,A,][E,G,] A,2 [A,,A,][C,G,] | %14
w: ~ end- less doom? ~ ~|~ ~ ~ ~ ~ ~ ~|
 [D,F,]>[D,F,] [D,F,][D,A,] [D,D]2 [D,D][=D,=B,] | %15
w: ~ ~ ~ ~ ~ ~ ~|
 [E,C]>[C,A,] [A,,C][A,,E] [E,C]<[E,A,] [E,G,]>[E,G,] | !fermata!A,2 F,E, !fermata!E,2 |] %17
w: ~ ~ ~ ~ ~ ~ ~ ~|~ end- less gloom?|
V:4
 x2 | x8 | x8 | x8 | x8 | x4 A,2 A,A, | x4 =D,2 x2 | x8 | x8 || x8 | x8 | x8 | E,6 x2 | x4 A,2 x2 | %14
 x8 | x8 | A,,6 |] %17

